/* XPM */
static const char * mode_edge_xpm[] = {
"16 16 7 1",
" 	c None",
".	c #54606A",
"+	c #677887",
"@	c #303A42",
"#	c #1D2429",
"$	c #000000",
"%	c #FFA200",
"                ",
"                ",
"       ..       ",
"     ..++..     ",
"   ..++++++..   ",
" @@++++++++++## ",
" @.@@++++++##@# ",
" @...@@+$$#@@@# ",
" @.....$%$@@@@# ",
" @.....$%$@@@@# ",
" @.....$%$@@@@# ",
" @@....$%$@@@## ",
"   @@..$%$@##   ",
"     @@$%$#     ",
"       $$       ",
"                "};
